X:1
T:Khvalitye imya Gospodie
T:Сергeй Рахманинов, 1915
T:Attributed to John Chrysostom, c. 349-407 AD
T:Приидите, поклонимся
T:Литургиа Святого Иоанна Златоуста , Op. 31, No. 5
T:Public Domain
T:Public Domain
T:Public Domain
T:Public Domain
C:Sergei Rakhmanninov
Z:Public Domain
%%score [ 1 ( 2 3 ) ( 4 5 ) ( 6 7 ) ]
L:1/8
Q:1/4=30
M:3/4
K:F
V:1 treble nm="Сопрано" snm="С"
V:2 treble nm="Альт" snm="А"
V:3 treble 
V:4 treble-8 nm="Тенор" snm="Т"
V:5 treble-8 
V:6 bass nm="Бас" snm="Б"
V:7 bass 
V:1
"^Очень медленно, с большим наростанием звуков\nVery slowly, with a large increase in sound"!pp!"^При –и  – ди      –       те,                  по    –   кло–ним   –   ся                  и    при-па   –   дем                ко Хри–""^Pri  –  i   –  di       –       tye,                 po    –   klo – nim   –   sya                  i     pri– pa    –  dyem            ko Khri–" A3 =B | %1
!<(! (=B3 ^c) c2-!<)! | c2!p! ^c3 d |!<(! (d3 e) e2-!<)! | e2!mf! [^ce]2 [ce]!<(![df]!<)! || %5
[M:4/4]!ff! (([df]2 [eg]4)) (3:2:2!>!d2 !>![^ce] | %6
"^–сту.     Спа-си нас,  Сы–не Бо-жий,         во-скре-сый из мертвых, по–ю– ши–я  Ти:                                        по –""^–stu.      Spa–si  nac,   Sui–ne Bo–zhii,           vo-skre–sui   iz mertvuikh, po-yu-shchi-ya Ti:                                       po –" !fermata![^ce]4 z"^Темп бодрый и оживленный\nBrisk and lively"[Q:1/4=100]!ff! [df][df][ce] | %7
 !tenuto![=Bd]3 [^ce] !tenuto![ce]2 [ce]2- |!ped! [ce]2"^*" [df][^ce] [=Bd]3 [ce]!ped-up! | %9
 !tenuto![^ce]2 [ce]4 !>!A2 | !>!d2 !>!=B!>!B !>!A4- |!>(! A6 G2!>)! | %12
!p!"^–ю–ши-я     Ти:     Ал        –      ли    –    лу        –        иа.                           Ал  – ли–лу – иа.""^–yu-shchi-ya   Ti:      Al          –      li      –     lu         –         ia.                            Al   – li  – lu  –  ia." A4 A2 A2 | %13
 A6!pp! A2- | A2 A4 A2- | A2 A6 |"^замедляя\nslowing"[Q:1/4=90] A6 A2 |[Q:1/4=70] A8 | %18
 !fermata!A8 |] %19
"^*""^или так: (or like so:)"!ped! ([ce]2"^во  свя-тых ди – вен сы–й,   по –""^vo svta-tuikh di – ven sui–i,     po –" [df])[^ce] !tenuto![=Bd]3 [ce]!ped-up! | %20
 !tenuto![^ce][ce] [ce]4 !>!A2 | %21
"^или  (or)"!ped! ([ce]"^мо–лит–ва-ми Бо-го –  ро-ди-цы,  по –""^mo– lit – va–mi  Bo-go –  ro- di–tsui, po –"[^ce]) !tenuto![df]2 [ce][=Bd][Bd][ce]!ped-up! | %22
 !tenuto![^ce][ce] [ce]4 !>!A2 | %23
V:2
!pp! ^C3 D |!<(! (D3 E) E2-!<)! | E2!p! [EA]3 [FA] |!<(! A4 [GA]2-!<)! | [GA]2!mf! A2 A!<(!A!<)! || %5
[M:4/4] (A2 d2)!ff! c2 (3:2:2!>!G2 !>!A | !>!!fermata!A4 z!ff! AAA | !tenuto!A3 A !tenuto!A2 A2- | %8
 A2 AA !tenuto!A3 A | !tenuto!A2 A4 !>!E2 | %10
 !>!A2 !>!^G!>!G !>!A2"^по  –ю–ши–я  Ти:""^po-yu-shchi-ya Ti:" F2 | G2 E!>(!E F2 D2!>)! | %12
!p! ^C4 C2 C2 | %13
 ^C6!pp!"^Ал–ли – лу    –  иа,  Ал–ли–лу   –    иа, Ал–ли–лу      –     иа.""^Al - li   –  lu    –   ia,    Al –li  – lu    –     ia,  Al – li –  lu       –     ia." FE | %14
 (!tenuto!E2 DE) F2 FE | (!tenuto!E2 DE) F2 FE | (E2 D4 E2) | ((E8 | !fermata![DF]8)) |] %19
 (A2 A)A !tenuto!A3 A | !tenuto!AA A4 !>!E2 | (AA) !tenuto!A2 AAAA | !tenuto!AA A4 !>!E2 | %23
V:3
 x4 | x6 | x6 | (F3 G) x2 | x6 ||[M:4/4] x8 | x8 | x8 | x8 | x8 | x8 | x8 | x8 | x8 | x8 | x8 | %16
 x8 | x8 | x8 |] x8 | x8 | x8 | x8 | %23
V:4
!pp!"^При –и  – ди      –       те,                  по    –   кло–ним   –   ся                  и    при-па   –   дем                ко Хри–""^Pri  –  i   –  di       –       tye,                 po    –   klo – nim   –   sya                  i     pri– pa    –  dyem            ko Khri–" [EA]3 [FA] | %1
!<(! A4 [GA]2-!<)! | [GA]2!p! [A^c]3 [=Bd] |!<(! ([=Bd]3 [^ce]) [ce]2-!<)! | %4
 [ce]2!mf! [^ce]2 [ce]!<(![df]!<)! ||[M:4/4]!ff! ([df]2 [eg]4) (3:2:2!>!d2 !>![^ce] | %6
"^–сту.     Спа-си нас,  Сы–не Бо-жий,         во-скре-сый из мертвых, по–ю– ши–я  Ти:                                        по –""^–stu.      Spa–si  nac,   Sui–ne Bo–zhii,           vo-skre–sui   iz mertvuikh, po-yu-shchi-ya Ti:                                       po –" !>!!fermata![^ce]4 z!ff! [df][df][ce] | %7
 d3 [^ce] !tenuto![ce]2 [ce]2- | [ce]2 [df][^ce] !tenuto!d3 [ce] | !tenuto![^ce]2 [ce]4 !>!c2 | %10
 !>!d2 !>!d!>!d (!>!d2 A2-) |!>(! A6 G2!>)! |!p! A4 A2 A2 | A6!pp! dA | (!tenuto!A2 FA) d2 dA | %15
 (!tenuto!A2 FA) d2 dA | A8 | A8- | !fermata!A8 |] %19
 ([ce]2"^во  свя-тых ди – вен сы–й,   по –""^vo svta-tuikh di – ven sui–i,     po –" [df])[^ce] !tenuto!d3 [ce] | %20
 !tenuto![^ce][ce] [ce]4 !>!c2 | %21
 ([ce]"^мо–лит–ва-ми Бо-го –  ро-ди-цы,  по –""^mo– lit – va–mi  Bo-go –  ro- di–tsui, po –"[^ce]) !tenuto![df]2 [ce]dd[ce] | %22
 !tenuto![^ce][ce] [ce]4 !>!c2 | %23
V:5
 x4 | (F3 G) x2 | x6 | x6 | x6 ||[M:4/4] x8 | x8 | x8 | x8 | x8 | d2 dd A4- | A6 x2 | x8 | x8 | %14
 x8 | x8 | x8 | x8 | x8 |] x8 | x8 | x8 | x8 | %23
V:6
!pp! [A,,E,]3 [A,,F,] |!<(! (F,3 G,) [A,,G,]2-!<)! | [A,,G,]2!p! A,3 A, |!<(! A,4 A,2-!<)! | %4
 A,2!mf! A,2 A,!<(!A,!<)! ||[M:4/4] (A,2 B,2)!ff! C2 (3:2:2!>!B,2 !>!A, | %6
 !>!!fermata!A,4!ff! z DDA, | !tenuto![F,A,]3 A, !tenuto!A,2 A,2- | %8
"^*"!ped! A,2 DA, !tenuto![F,A,]3 A,!ped-up! | !tenuto!A,2 A,4 !>!G,2 | %10
 !>!F,2 !>!E,!>!E, !>!F,2"^по  –ю–ши–я  Ти:""^po-yu-shchi-ya Ti:" D,2 | %11
 !tenuto!E,2 C,!>(!C, D,2 [B,,D,]2!>)! |!p! [A,,E,]4 [A,,E,]2 [A,,E,]2 | %13
 [A,,E,]6!pp!"^Ал         –       ли– лу–иа,        Ал–ли–лу–иа,""^Al           –       li  –  lu – ia,         Al  –li  – lu – ia,""^Ал             –            ли      –         лу    –    иа,""^Al              –             li         –         lu     –     ia," (A,,2 | %14
 F,2) A,,2 D,2 A,,2 | F,2 A,,2 D,2 A,,2 | %16
"^Ал  –  ли –лу – иа.""^Al    –   li  – lu  –  ia." (([C,E,]2 [B,,D,]4)) [A,,E,]2 | [A,,E,]8 | %18
 !fermata![D,,A,,D,]8 |]!ped! (A,2 D)A, !tenuto![F,A,]3 A,!ped-up! | !tenuto!A,A, A,4 !>!G,2 | %21
!ped! (A,A,) !tenuto!D2 A,[F,A,][F,A,]A,!ped-up! | !tenuto!A,A, A,4 !>!G,2 | %23
V:7
 x4 | A,,4 x2 | x6 | x6 | x6 ||[M:4/4] x8 | x8 | x8 | x8 | x8 | x8 | x8 | x8 | x4 x2 D,,2- | %14
 D,,4 D,,4 | D,,4 D,,4 | x8 | x8 | x8 |] x8 | x8 | x8 | x8 | %23

